X:130
T:Steirische aus Mariazell (2.)
C:traditionell
R:Steirer
A:Mariazell, Steiermark
B:"Wer tanzt nach meiner Pfeife", Sepp Pichler, Steirisches Volksliedwerk, Graz, undatet
S:Steirisches Volkslied-Archiv 25/61
N: in der quelle in D, im buch in F, s. 23 nr. 2, quelle einstimmig
Z:abc transcription Simon Wascher
F:http://simonwascher.info/TradArchiv/
N:in der quelle in D im buch in F
M:3/4
L:1/8
K:C
|: gf |\
egfa g2 | dfeg f2 | BfBGfB | cdefgf |\
egfa g2 | dfeg f2 | BfBGfB | c4 :|
